Obsidian/actions/16s/cm_runterm.svg

<svg height="16" viewBox="0 0 16 16" width="16" xmlns="http://www.w3.org/2000/svg"><path d="m2 1c-1.10799995 0-1.99999995.892-1.99999995 2v10c0 1.108.892 2 1.99999995 2h12c1.108 0 2-.892 2-2v-10c0-1.108-.892-2-2-2zm2 2h.9999999v1h.5c.654 0 1.2022.418 1.4082 1h-1.9082v1h.5c.831 0 1.5.669 1.5 1.5s-.669 1.5-1.5 1.5h-.5v1h-.9999999v-1h-.5c-.6542 0-1.2022-.418-1.4082-1h1.9082v-1h-.5c-.831 0-1.5-.669-1.5-1.5s.669-1.5 1.5-1.5h.5zm-.5 2c-.277 0-.5.223-.5.5s.223.5.5.5h.5v-1zm1.4999999 2v1h.5c.2767.0129.5-.223.5-.5s-.223-.5-.5-.5zm3 2h4.0000001v1h-4.0000001z" fill="#bebebe"/></svg>

<svg xmlns="http://www.w3.org/2000/svg" width="16" height="16" version="1.1" viewBox="0 0 16 16">
 <defs>
  <style id="current-color-scheme" type="text/css">
   .ColorScheme-Text { color:#bebebe; } .ColorScheme-Highlight { color:#4285f4; }
  </style>
 </defs>
 <path style="fill:currentColor" class="ColorScheme-Text" d="M 2,1 C 0.89200005,1 4.9999999e-8,1.892 4.9999999e-8,3 V 13 C 4.9999999e-8,14.108 0.89200005,15 2,15 h 12 c 1.108,0 2,-0.892 2,-2 V 3 C 16,1.892 15.108,1 14,1 Z m 2,2 h 0.9999999 v 1 h 0.5 c 0.654,0 1.2022,0.418 1.4082,1 h -1.9082 v 1 h 0.5 c 0.831,0 1.5,0.669 1.5,1.5 0,0.831 -0.669,1.5 -1.5,1.5 h -0.5 v 1 H 4 V 9 H 3.5 C 2.8458,9 2.2978,8.582 2.0918,8 H 4 V 7 H 3.5 C 2.669,7 2,6.331 2,5.5 2,4.669 2.669,4 3.5,4 H 4 Z M 3.5,5 C 3.223,5 3,5.223 3,5.5 3,5.777 3.223,6 3.5,6 H 4 V 5 Z m 1.4999999,2 v 1 h 0.5 c 0.2767,0.0129 0.5,-0.223 0.5,-0.5 0,-0.277 -0.223,-0.5 -0.5,-0.5 z m 3,2 H 12 v 1 H 7.9999999 Z"/>
</svg>
